!!!COM: Bach, Johann Sebastian
!!!OTL@@DE: 343. Nun lieget alles unter dir
!!!OTL@EN: Now all lies beneath Thee
!!!SCA: BWV 11.6
**kern	**kern	**kern	**kern
*staff2	*staff2	*staff1	*staff1
*Iorgan	*Iorgan	*Iorgan	*Iorgan
*>[A,A,B]	*>[A,A,B]	*>[A,A,B]	*>[A,A,B]
*>norep[A,B]	*>norep[A,B]	*>norep[A,B]	*>norep[A,B]
*>A	*>A	*>A	*>A
!bass	!tenor	!alto	!sprno
*clefF4	*clefF4	*clefG2	*clefG2
*k[]	*k[]	*k[]	*k[]
*k[f#c#]	*k[f#c#]	*k[f#c#]	*k[f#c#]
*M3/4	*M3/4	*M3/4	*M3/4
*MM60	*MM60	*MM60	*MM60
=1-	=1-	=1-	=1-
8D\L	4F#/	4A\	4d/
8C#\J	.	.	.
4BB\	8F#/L	4d\	4d/
.	8D/J	.	.
4AA\	4A/	8d\L	4e/
.	.	8c#\J	.
=2	=2	=2	=2
4.D\	8A/L	2d\	4.f#/
.	8F#/J	.	.
.	4B/	.	.
8E\	.	.	8g#/
4F#\	4A/	8c#\L	4a/
.	.	8A\J	.
=3	=3	=3	=3
8D\L	4B/	4f#\	2a/
8BB\J	.	.	.
2E\	8B/L	2e\	.
.	8c#/J	.	.
.	4d/	.	4g#/
=4	=4	=4	=4
2AA;\	2c#;/	2e;\	2a;/
4D\	4A/	8d\L	4f#/
.	.	8c#\J	.
=5	=5	=5	=5
4E\	4G/	8B\L	2g/
.	.	8c#\J	.
4.F#\	8A/L	[2d\	.
.	8G/J	.	.
.	[4A/	.	4f#/
8G\	.	.	.
=6	=6	=6	=6
[4A/	8A\L]	8d\L]	2e/
.	8G\J	16c#\L	.
.	.	16B\JJ	.
8A/L]	4F#\	4c#\	.
8G/J	.	.	.
4F#/	8B\L	4d\	[4d/
.	8A\J	.	.
=7	=7	=7	=7
8G\L	4B/	4d\]	2.e/
8E\J	.	.	.
4A\	4.A/	8c#\L	.
.	.	8B\J	.
4AA\	.	4c#\	.
.	8G/	.	.
=8	=8	=8	=8
2.D;\	2.F#;/	2.A;\	2.d;/
=9:|!	=9:|!	=9:|!	=9:|!
*>B	*>B	*>B	*>B
4AA\	8A/L	8c#\L	4e/
.	8G#/J	8B\J	.
8A\L	4A/	4.c#\	4e/
8Gn\J	.	.	.
4F#\	4A/	.	4f#/
.	.	8d#\	.
=10	=10	=10	=10
4.E\	8B/L	4e\	2g/
.	8A/J	.	.
.	2G/	4B\	.
8D\L	.	.	.
8Cn\	.	[4e\	4g/
8BB\J	.	.	.
=11	=11	=11	=11
8AA\L	4cn/	4e\]	4.f#/
8FF#\J	.	.	.
4BB\	4.B/	8d#\L	.
.	.	8c#\J	8e/
4BB\	.	4d#\	4f#/
.	8A/	.	.
=12	=12	=12	=12
!!linebreak: 2
2.E;\	2.G;/	2.e;/	2.e;\
=13	=13	=13	=13
8BB\L	4B/	4d#\	4f#/
8C#\J	.	.	.
4D#\	8F#/L	4B\	4f#/
.	8G/J	.	.
4BB\	8A/L	4d#\	4f#/
.	8B/J	.	.
=14	=14	=14	=14
4.E\	8G/L	4e\	4.g/
.	8F#/J	.	.
.	4E/	4B\	.
8F#\L	.	.	8a/
8G\	8e/L	4B\	4b/
8F#\J	8d/J	.	.
=15	=15	=15	=15
8E\L	4.c#/	8g\L	2b/
8D\J	.	8f#\J	.
4C#\	.	8e\L	.
.	8B/	8d\J	.
4F#\	4c#/	4e\	4a#/
=16	=16	=16	=16
2BB;\	2B;/	2d;\	2b;/
4F#\	4A#/	4f#\	4cc#/
=17	=17	=17	=17
4.B\	4.B/	8f#\L	4dd/
.	.	8e\J	.
.	.	2d\	2f#/
8An\	8F#/	.	.
8G\L	8B/L	.	.
8F#\J	8A/J	.	.
=18	=18	=18	=18
8E\L	8G/L	8c#\L	2g/
8D\J	8F#/J	8d\J	.
4C#\	8E/	4e\	.
.	4A/	.	.
4D\	.	[4d\	4f#/
.	8G#/	.	.
=19	=19	=19	=19
4A\	4A/	8d\L]	4e/
.	.	8B\J	.
4AA;\	4A;/	4c#;\	4e;/
4F#\	4A/	4d\	4a/
=20	=20	=20	=20
4.G\	(8G/L	4d\	4.b/
.	8A/J	.	.
.	8B/L)	8g\L	.
8A\	8c#/J	8f#\J	8a/
8B\L	8d/	8f#\L	4g/
8C#\J	8A/	8e\J	.
=21	=21	=21	=21
8D\L	8A/L	[4d\	8f#/L
8GG\J	8B/J	.	8e/J
2AA\	4A/	4d\]	4.e/
.	4G/	4c#\	.
.	.	.	8d/
=22	=22	=22	=22
2.D;\	2.F#;/	2.A;\	2.d;/
==	==	==	==
*-	*-	*-	*-
!!!ENC: Craig Stuart Sapp
!!!END: 2004/12/06/
!!chor2scor: -l 2 -s 0.6 -o %b.pmx
